X: 61
T: Motet cycle Quam pulchra es &mdash; 2. Alma redemptoris mater
C: Gaspar van Weerbeke
%%abc-version 2.0
%%abcx-abcm2ps-target-version 5.9.1 (29 Sep 2008)
%%abc-creator hum2abc beta
%%abcx-conversion-date 2022/03/06 13:05:55
%%abc-copyright Copyright 2021, Pavanello, Agnese
%%abc-edited-by Sapp, Craig Stuart
%%abc-edited-by Wissmann, Rolf
%%humdrum-veritas 3847462333
%%humdrum-veritas-data 4276621470
%%linebreak <none>
%%barnumbers 0
L: 1/4
M: C
N: Derived from Gas0302b-Quam_pulchra_es-Alma_redemptoris_mater.krn
%%staves [1 2 3 4]
V: 1 clef=treble
V: 2 clef=treble-8
V: 3 clef=treble-8
V: 4 clef=bass
K: F
[V:1] G6E2 | 
[V:2] d4G2c2 | 
[V:3] G8 | 
[V:4] G,4E,2C,2 | 
[V:1] F4G4 | 
[V:2] A2BAc4 | 
[V:3] d4_e4 | 
[V:4] D,4C,4 | 
[V:1] F2B4A2 | 
[V:2] z2f2f2f2 | 
[V:3] d2B2c4 | 
[V:4] _B,,2B,2F,4 | 
[V:1] B4z2B2 | 
[V:2] d4g3f | 
[V:3] B4z4 | 
[V:4] z2G,2G,2G,2 | 
[V:1] B2B2B2A2- | 
[V:2] d2g2e2f2 | 
[V:3] G2G2G2A2 | 
[V:4] B,2>A,2G,2F,2 | 
[V:1] A2G4^F2 | 
[V:2] g2d6 | 
[V:3] B4A4 | 
[V:4] _E,2G,2D,4 | 
[V:1] G4z2B2 | 
[V:2] d4z2d2 | 
[V:3] G4z4 | 
[V:4] z2B,2B,2B,2 | 
[V:1] B2G2B2c2 | 
[V:2] d2d2e2f2- | 
[V:3] B2B2B2A2 | 
[V:4] G,4G,2F,2 | 
[V:1] d2c2B2c2- | 
[V:2] fga2_b3a | 
[V:3] B2c2d2_e2 | 
[V:4] B,2F,2B,2_E,2 | 
[V:1] c2B4A2 | 
[V:2] gf_e2f4 | 
[V:3] d2B2c4 | 
[V:4] B,2G,2F,4 | 
[V:1] B4B4 | 
[V:2] d4B4 | 
[V:3] B4G4- | 
[V:4] _B,,4_E,4- | 
[V:1] G2_E2F2B2 | 
[V:2] c4d2B2 | 
[V:3] G4d4 | 
[V:4] E,4D,4 | 
[V:1] A2c4B2- | 
[V:2] c4d2e2 | 
[V:3] _e4d2B2 | 
[V:4] A,4B,2G,2 | 
[V:1] B2A2B4 | 
[V:2] f4d4 | 
[V:3] c4B4 | 
[V:4] F,4z2G,2 | 
[V:1] z2B2B2B2 | 
[V:2] z2d2d2d2 | 
[V:3] z4G2G2 | 
[V:4] G,2G,2B,3A, | 
[V:1] B2A4G2- | 
[V:2] e2f2g2d2- | 
[V:3] G2A2B4 | 
[V:4] G,2F,2_E,2G,2 | 
[V:1] G2^F2G4 | 
[V:2] d4d4 | 
[V:3] A4G4 | 
[V:4] D,4z2G,2- | 
[V:1] D2>D2D2F2 | 
[V:2] g2g2f4 | 
[V:3] z4B2B2 | 
[V:4] G,G,G,2D4 | 
[V:1] G2A2F2B2- | 
[V:2] z4f4- | 
[V:3] B2c2d4 | 
[V:4] B,2A,2B,2G,B, | 
[V:1] B2A2B2d2 | 
[V:2] f2f2f4 | 
[V:3] c4B4 | 
[V:4] F,4_B,,4 | 
[V:1] c2A4G2- | 
[V:2] f2>e2dBc2 | 
[V:3] c4B2G2 | 
[V:4] F,4G,2_E,2 | 
[V:1] G2^F2G4 | 
[V:2] d4z4 | 
[V:3] A4G4 | 
[V:4] D,4z4 | 
[V:1] B2B2B2G2 | 
[V:2] z8 | 
[V:3] z4B2B2 | 
[V:4] z8 | 
[V:1] F2G2A4 | 
[V:2] z8 | 
[V:3] B2G2F4 | 
[V:4] z8 | 
[V:1] B4A2F2 | 
[V:2] z8 | 
[V:3] G4A4 | 
[V:4] z8 | 
[V:1] G4C2F2- | 
[V:2] z8 | 
[V:3] B4A2F2 | 
[V:4] z8 | 
[V:1] F2E2F4 | 
[V:2] z4c2c2 | 
[V:3] G4F4- | 
[V:4] z8 | 
[V:1] F4z4 | 
[V:2] c2c2B3c | 
[V:3] F4z4 | 
[V:4] z4G,2G,2 | 
[V:1] z8 | 
[V:2] d2_e4d2- | 
[V:3] z8 | 
[V:4] G,2G,2F,4 | 
[V:1] G2G2F2F2 | 
[V:2] d2c2d4 | 
[V:3] z8 | 
[V:4] _E,4D,4 | 
[V:1] D2>E2F3G | 
[V:2] z4a3g | 
[V:3] z4d2d2 | 
[V:4] G,2G,2D,2D,2 | 
[V:1] A2FGA2B2- | 
[V:2] f2f4e2 | 
[V:3] d2d2c2B2 | 
[V:4] D,2>_E,2F,2G,2 | 
[V:1] B2A2BAGF | 
[V:2] f4d2g2 | 
[V:3] c4B4 | 
[V:4] F,4z2G,2 | 
[V:1] E2A4G2- | 
[V:2] e2f4d2- | 
[V:3] c4d2B2 | 
[V:4] A,2F,4G,2 | 
[V:1] G2^F2 | 
[V:2] d4 | 
[V:3] A4 | 
[V:4] D,4 | 
[V:1] [M:3/1]G6G6 | 
[V:2] [M:3/1]B4B2c2>B2c2 | 
[V:3] [M:3/1]G6G6 | 
[V:4] [M:3/1]_E,6C,2>D,2E,2 | 
[V:1] F4G2A6 | 
[V:2] d4e2f2>e2f2 | 
[V:3] A4B2c6 | 
[V:4] D,4G,2F,2>G,2A,2 | 
[V:1] B4c2B2>A2G2 | 
[V:2] g4a2d4B2 | 
[V:3] d4A2G4d2 | 
[V:4] G,4F,2G,2>A,2G,2 | 
[V:1] A4B2c4d2 | 
[V:2] c4g2g4g2 | 
[V:3] f4d2e4d2 | 
[V:4] F,4G,2C,4G,2 | 
[V:1] B4c2d2>c2B2 | 
[V:2] d4c2B2G2B2 | 
[V:3] g2>f2e2d4d2 | 
[V:4] G,4A,2B,4G,2 | 
[V:1] A4d2c4A2 | 
[V:2] c4B2A2>B2c2 | 
[V:3] f4d2e4f2 | 
[V:4] F,4B,2C2A,4 | 
[V:1] B4c2d2>c2B2 | 
[V:2] d4g2g4g2 | 
[V:3] g2>f2e2d4d2 | 
[V:4] G,4C,2G,4B,2 | 
[V:1] A2>B2c2d4^c2 | 
[V:2] abc'2a2g2a4 | 
[V:3] f4e2d2e4 | 
[V:4] F,2>G,2A,2B,2A,4 | 
[V:1] d4z2d4e2 | 
[V:2] f2>e2dcB4G2 | 
[V:3] d4z2z6 | 
[V:4] D,6G,4_E,2 | 
[V:1] f4e2d4c2 | 
[V:2] A2>B2c2A2>B2c2 | 
[V:3] d4e2f4e2 | 
[V:4] D,4C,2F,4C,2 | 
[V:1] B4A2G2F2G2 | 
[V:2] d4e2d4c2 | 
[V:3] d4c2B2A2G2 | 
[V:4] G,4C,2G,2D,2_E,2 | 
[V:1] A6A4B2 | 
[V:2] d4f2f4d2 | 
[V:3] F6F4G2 | 
[V:4] D,4D,2D,4G,2 | 
[V:1] c4c2c2>B2AG | 
[V:2] f4f2f2>e2f2 | 
[V:3] A4A2A2>B2c2 | 
[V:4] F,4F,2F,2>G,2A,2 | 
[V:1] B2A2>G2G4^F2 | 
[V:2] g2e2f2d6 | 
[V:3] d2c4B2A4 | 
[V:4] G,2A,2F,2G,2D,4 | 
[V:1] G8 |]  
[V:2] d8 |]  
[V:3] G8 |]  
[V:4] G,8 |]  


